X: 09090
T: PHIL'S HORNPIPE
C: Bob McQuillen 24 Mar 92
B: Bob's Note Book 9 #90
%R: hornpipe, reel
Z: 2018 John Chambers <jc:trillian.mit.edu>
M: C
L: 1/8
K: D
FG |\
Adfd edBd | A2AF GFEF | DFAF GBAG | FAFD E2FG |
Adfd edBd | ABAF GFEF | D2FA GBAG | F2D2 D2 :|
|: FG |\
AddA BddB | AddB AGFG | AddA BddB | Adfd e2FG |
AFAd BGBd | Acec dBAG | FDFA dBAG | F2D2 D2 :|
%%begintext align
%% Phil Katz is surely a
%% prime mover in the band "Salmonberry", out in
%% Seattle. He plays button box, and I've never met
%% anyone who has more enthusiasm for the contra
%% dance scene than he does. He once cooked us a
%% Salmon dinner that I'll never forget. It was so
%% good! I hope this tune will say "Thanks, Phil!"
%%endtext

%%sep 1 1 500

%%sep 1 1 500

